X: 1437
T: Johnny Has Gone To France
M:C|
L:1/8
N:"collected by McFadden"
B:O'Neill's 1437
Z:"Transcribed by Bob Safranek, rjs@gsp.org"
K:G
g2 (fg)       dcAc | dBcA FGAF | dg ((3{a}gfg) dcA^c | dBcA dBcA  |
g2  fg        dcAc | dBcA FGAF | dg ((3{a}gfg) dcA^c | dBcA BG G2 ||
dg ((3{a}gfg) gbag | fdcA FGAF | dg ((3{a}gfg) gbag  | fdcA AG G2 |
g2  fg        gbag | fdcA defg | ((3aba) ag    fgag  | fdcA AG G2 |]


